resources/js/Projects/EF28/Components/Icons/EscalatorDown.svg

<?xml version="1.0" encoding="UTF-8" standalone="no"?>
<!-- Created with Inkscape (http://www.inkscape.org/) -->

<svg
   viewBox="0 0 512 512"
   version="1.1"
   id="svg136"
   xml:space="preserve"
   xmlns="http://www.w3.org/2000/svg"
   xmlns:svg="http://www.w3.org/2000/svg"><defs
     id="defs133" /><g
     id="layer1" class="svgIconFill"><path
       id="path489"
       style="fill-opacity:1;stroke:none;stroke-width:64;stroke-miterlimit:10;paint-order:markers fill stroke"
       d="M -256 0 C -114.6158 0 0 -114.6158 0 -256 C 0 -397.3842 -114.6158 -512 -256 -512 C -397.3842 -512 -512 -397.3842 -512 -256 C -512 -114.6158 -397.3842 0 -256 0 z M -313.6543 -50.710938 C -314.24139 -50.727431 -314.83368 -50.796845 -315.42578 -50.921875 C -318.48836 -51.568581 -321.04701 -53.601361 -322.36719 -56.439453 L -327.32812 -67.083984 L -341.72266 -70.007812 C -346.91686 -71.063122 -350.09507 -73.837909 -352.99414 -78.289062 L -355.66016 -93.574219 L -366.33984 -100.55664 C -377.27188 -106.47306 -379.65039 -106.70181 -378.42383 -112.24805 L -376.77344 -119.71094 C -375.62478 -124.90485 -369.08106 -128.46031 -360.60938 -127.79883 C -360.60937 -127.79883 -362.10207 -125.14978 -361.75 -125.50977 C -360.6164 -126.66883 -357.24697 -127.9658 -356.98828 -127.89648 C -355.71923 -127.55645 -351.92603 -127.25029 -349.51758 -128.4082 C -350.4403 -127.06227 -351.36222 -126.37034 -351.55078 -125.35742 C -351.09812 -126.07415 -344.53086 -127.54676 -343.78516 -126.95117 C -340.36099 -125.69646 -337.02049 -133.49561 -333.57812 -134.67188 C -334.0622 -133.32498 -334.656 -131.88385 -334.38477 -129.73242 C -332.92233 -133.21955 -330.13765 -135.59015 -329.5332 -138.69727 C -328.00747 -141.06124 -327.14434 -143.17688 -326.79102 -145.60156 C -307.03911 -127.99283 -283.01803 -131.50214 -270.48828 -139.48633 L -280.0625 -119.42578 C -282.6284 -114.60063 -284.13496 -114.51887 -287.78125 -110.01367 C -285.36519 -112.08892 -283.13027 -110.85896 -281.36719 -112.53906 C -285.21288 -107.22589 -287.68629 -101.8057 -291.6543 -96.121094 C -288.26241 -99.115945 -285.76356 -98.109333 -283.83398 -101.39648 C -287.41862 -92.13976 -294.66493 -77.21639 -301.09375 -67.775391 C -302.31558 -65.840948 -299.59961 -69.060547 -299.59961 -69.060547 C -300.37578 -64.516851 -304.16406 -56.990234 -304.16406 -56.990234 C -305.70306 -53.060346 -309.54463 -50.59548 -313.6543 -50.710938 z M -315.73828 -55.708984 C -314.51175 -55.784407 -313.08025 -56.960371 -312.07617 -60.306641 L -307.03711 -72.199219 C -308.91841 -69.735924 -318.45392 -67.205976 -322.25781 -66.707031 L -318.00391 -57.179688 C -317.69367 -56.484738 -317.04209 -55.889189 -316.25 -55.740234 C -316.08498 -55.709204 -315.9135 -55.69821 -315.73828 -55.708984 z M -95.933594 -132.73242 L -165.03516 -132.73242 C -179.18735 -132.73242 -192.87314 -137.91488 -203.50391 -147.2168 L -357.11914 -281.56445 L -404.22656 -281.56445 C -436.5175 -281.56445 -462.69727 -307.74227 -462.69727 -340.0332 C -462.69727 -372.32414 -436.5175 -398.50195 -404.22656 -398.50195 L -335.12695 -398.50195 C -320.97476 -398.50195 -307.28701 -393.31949 -296.65625 -384.01758 L -143.04297 -249.67188 L -95.933594 -249.67188 C -63.642657 -249.67187 -37.464844 -223.49406 -37.464844 -191.20312 C -37.464844 -158.9122 -63.642657 -132.73242 -95.933594 -132.73242 z M -292.60352 -143.36328 C -316.05763 -143.36328 -335.12695 -162.4326 -335.12695 -185.88672 L -335.12695 -234.05859 L -255.72852 -164.625 C -263.1036 -151.93453 -276.85669 -143.36328 -292.60352 -143.36328 z M -95.933594 -164.625 C -81.249854 -164.625 -69.357422 -176.51939 -69.357422 -191.20312 C -69.357422 -205.88687 -81.249854 -217.7793 -95.933594 -217.7793 L -149.08789 -217.7793 C -152.94155 -217.7793 -156.66248 -219.17441 -159.58594 -221.69922 L -317.65234 -360.0332 C -322.50263 -364.28551 -328.68206 -366.60937 -335.12695 -366.60938 L -404.22656 -366.60938 C -418.91031 -366.60938 -430.80469 -354.71695 -430.80469 -340.0332 C -430.80469 -325.34947 -418.91031 -313.45703 -404.22656 -313.45703 L -351.07227 -313.45703 C -347.21861 -313.45703 -343.49963 -312.06192 -340.57617 -309.53711 L -182.50977 -171.20312 C -177.65948 -166.95083 -171.48005 -164.625 -165.03516 -164.625 L -95.933594 -164.625 z M -104.87695 -312.36133 C -107.54727 -312.36133 -110.21796 -313.38202 -112.25977 -315.42383 L -183.01953 -386.18359 L -183.04297 -337.57227 C -183.043 -331.80442 -187.72632 -327.12112 -193.49414 -327.12109 C -199.26199 -327.1211 -203.94727 -331.80441 -203.94727 -337.57227 L -203.94727 -411.40234 L -203.90039 -411.40234 C -203.90039 -417.17021 -199.21707 -421.85352 -193.44922 -421.85352 L -119.61914 -421.85352 C -113.86695 -421.85352 -109.16795 -417.17019 -109.16797 -411.40234 C -109.16795 -405.63449 -113.85128 -400.95116 -119.61914 -400.95117 L -168.27734 -400.97461 L -97.494141 -330.18945 C -93.410513 -326.10585 -93.410513 -319.50747 -97.494141 -315.42383 C -99.535965 -313.38201 -102.20665 -312.36133 -104.87695 -312.36133 z "
       transform="scale(-1)" /><path
       d="m 323.01334,501.89241 c 0,10.08393 8.18815,18.27208 18.27207,18.27208 l 129.07424,-10e-6 c 10.08398,0 18.27213,-8.18817 18.27206,-18.27207 7e-5,-10.08394 -8.18808,-18.27208 -18.27206,-18.27207 l -85.06798,0.0403 123.74994,-123.74997 c 7.13942,-7.13939 7.13942,-18.67541 0,-25.81483 -7.13942,-7.13942 -18.67545,-7.13941 -25.81481,-1e-5 l -123.70964,123.70965 -0.0403,-84.98735 c -3e-5,-10.0839 -8.18818,-18.27204 -18.27207,-18.27208 -10.08394,2e-5 -18.27209,8.18816 -18.27209,18.27209 l -1e-5,129.07426 z"
       id="path5705"
       style="display:none;stroke-width:0.570433" /></g><g
     id="g845"
     transform="matrix(-0.6644239,0,0,0.6644239,462.69637,50.01279)" /></svg>

<svg xmlns="http://www.w3.org/2000/svg" xml:space="preserve" viewBox="0 0 512 512"><path d="M-256 0C-114.616 0 0-114.616 0-256s-114.616-256-256-256-256 114.616-256 256S-397.384 0-256 0m-57.654-50.71a10 10 0 0 1-1.772-.212 9.89 9.89 0 0 1-6.941-5.517l-4.961-10.645-14.395-2.924c-5.194-1.055-8.372-3.83-11.271-8.281l-2.666-15.285-10.68-6.983c-10.932-5.916-13.31-6.145-12.084-11.691l1.65-7.463c1.15-5.194 7.693-8.75 16.165-8.088 0 0-1.493 2.65-1.141 2.29 1.134-1.16 4.503-2.457 4.762-2.387 1.269.34 5.062.646 7.47-.512-.922 1.346-1.844 2.038-2.033 3.05.453-.716 7.02-2.189 7.766-1.593 3.424 1.255 6.765-6.545 10.207-7.72-.484 1.346-1.078 2.787-.807 4.939 1.463-3.488 4.247-5.858 4.852-8.965 1.526-2.364 2.389-4.48 2.742-6.905 19.752 17.61 43.773 14.1 56.303 6.116l-9.574 20.06c-2.566 4.825-4.073 4.907-7.72 9.412 2.417-2.075 4.652-.845 6.415-2.525-3.846 5.313-6.32 10.733-10.287 16.418 3.392-2.995 5.89-1.988 7.82-5.275-3.585 9.256-10.83 24.18-17.26 33.62-1.222 1.935 1.494-1.285 1.494-1.285-.776 4.544-4.564 12.07-4.564 12.07a9.91 9.91 0 0 1-9.49 6.28m-2.084-4.999c1.226-.075 2.658-1.251 3.662-4.598l5.039-11.892c-1.881 2.463-11.417 4.993-15.22 5.492l4.253 9.527c.31.695.962 1.29 1.754 1.44q.249.046.512.031m219.804-77.023h-69.101c-14.152 0-27.838-5.183-38.469-14.485l-153.615-134.347h-47.108c-32.29 0-58.47-26.178-58.47-58.47 0-32.29 26.18-58.468 58.47-58.468h69.1c14.152 0 27.84 5.183 38.47 14.484l153.614 134.346h47.11c32.29 0 58.468 26.178 58.468 58.469s-26.178 58.47-58.469 58.47m-196.67-10.631c-23.454 0-42.523-19.07-42.523-42.524v-48.172l79.398 69.434c-7.375 12.69-21.128 21.262-36.875 21.262m196.67-21.262c14.684 0 26.577-11.894 26.577-26.578S-81.25-217.78-95.934-217.78h-53.154a16.06 16.06 0 0 1-10.498-3.92l-158.066-138.334a26.44 26.44 0 0 0-17.475-6.576h-69.1c-14.683 0-26.578 11.892-26.578 26.576s11.895 26.576 26.578 26.576h53.155c3.853 0 7.572 1.395 10.496 3.92l158.066 138.334a26.44 26.44 0 0 0 17.475 6.578zm-8.943-147.736a10.4 10.4 0 0 1-7.383-3.063l-70.76-70.76-.023 48.612c0 5.768-4.683 10.45-10.451 10.45s-10.453-4.682-10.453-10.45v-73.83h.047c0-5.768 4.683-10.452 10.45-10.452h73.83c5.753 0 10.452 4.684 10.452 10.452s-4.683 10.45-10.451 10.45l-48.658-.023 70.783 70.786a10.43 10.43 0 0 1 0 14.765 10.4 10.4 0 0 1-7.383 3.063" class="svgIconFill" style="fill-opacity:1;stroke:none;stroke-width:64;stroke-miterlimit:10;paint-order:markers fill stroke" transform="scale(-1)"/></svg>
